Src/Delivery/studio/bitmaps/src/icons/10/3.svg

<?xml version="1.0" encoding="UTF-8" standalone="no"?>
<svg
   xmlns:dc="http://purl.org/dc/elements/1.1/"
   xmlns:cc="http://creativecommons.org/ns#"
   xmlns:rdf="http://www.w3.org/1999/02/22-rdf-syntax-ns#"
   xmlns:svg="http://www.w3.org/2000/svg"
   xmlns="http://www.w3.org/2000/svg"
   xmlns:sodipodi="http://sodipodi.sourceforge.net/DTD/sodipodi-0.dtd"
   xmlns:inkscape="http://www.inkscape.org/namespaces/inkscape"
   inkscape:version="1.0 (4035a4fb49, 2020-05-01)"
   sodipodi:docname="3.svg"
   id="svg16"
   version="1.1"
   width="100"
   viewBox="0 0 100 100"
   height="100">
  <metadata
     id="metadata22">
    <rdf:RDF>
      <cc:Work
         rdf:about="">
        <dc:format>image/svg+xml</dc:format>
        <dc:type
           rdf:resource="http://purl.org/dc/dcmitype/StillImage" />
        <dc:title></dc:title>
      </cc:Work>
    </rdf:RDF>
  </metadata>
  <defs
     id="defs20">
    <marker
       inkscape:isstock="true"
       style="overflow:visible"
       id="marker2025"
       refX="0.0"
       refY="0.0"
       orient="auto"
       inkscape:stockid="TriangleOutM">
      <path
         transform="scale(0.4)"
         style="fill-rule:evenodd;stroke:#000000;stroke-width:1pt;stroke-opacity:1;fill:#000000;fill-opacity:1"
         d="M 5.77,0.0 L -2.88,5.0 L -2.88,-5.0 L 5.77,0.0 z "
         id="path2023" />
    </marker>
    <marker
       inkscape:isstock="true"
       style="overflow:visible"
       id="EmptyTriangleOutM"
       refX="0.0"
       refY="0.0"
       orient="auto"
       inkscape:stockid="EmptyTriangleOutM">
      <path
         transform="scale(0.4) translate(-4.5,0)"
         style="fill-rule:evenodd;fill:#ffffff;stroke:#000000;stroke-width:1pt;stroke-opacity:1"
         d="M 5.77,0.0 L -2.88,5.0 L -2.88,-5.0 L 5.77,0.0 z "
         id="path1048" />
    </marker>
    <marker
       inkscape:isstock="true"
       style="overflow:visible"
       id="marker1845"
       refX="0.0"
       refY="0.0"
       orient="auto"
       inkscape:stockid="TriangleOutM">
      <path
         transform="scale(0.4)"
         style="fill-rule:evenodd;stroke:#000000;stroke-width:1pt;stroke-opacity:1;fill:#000000;fill-opacity:1"
         d="M 5.77,0.0 L -2.88,5.0 L -2.88,-5.0 L 5.77,0.0 z "
         id="path1843" />
    </marker>
    <marker
       inkscape:isstock="true"
       style="overflow:visible;"
       id="Arrow2Mend"
       refX="0.0"
       refY="0.0"
       orient="auto"
       inkscape:stockid="Arrow2Mend">
      <path
         transform="scale(0.6) rotate(180) translate(0,0)"
         d="M 8.7185878,4.0337352 L -2.2072895,0.016013256 L 8.7185884,-4.0017078 C 6.9730900,-1.6296469 6.9831476,1.6157441 8.7185878,4.0337352 z "
         style="fill-rule:evenodd;stroke-width:0.625;stroke-linejoin:round;stroke:#000000;stroke-opacity:1;fill:#000000;fill-opacity:1"
         id="path912" />
    </marker>
    <marker
       inkscape:isstock="true"
       style="overflow:visible;"
       id="Arrow2Send"
       refX="0.0"
       refY="0.0"
       orient="auto"
       inkscape:stockid="Arrow2Send">
      <path
         transform="scale(0.3) rotate(180) translate(-2.3,0)"
         d="M 8.7185878,4.0337352 L -2.2072895,0.016013256 L 8.7185884,-4.0017078 C 6.9730900,-1.6296469 6.9831476,1.6157441 8.7185878,4.0337352 z "
         style="fill-rule:evenodd;stroke-width:0.625;stroke-linejoin:round;stroke:#000000;stroke-opacity:1;fill:#000000;fill-opacity:1"
         id="path918" />
    </marker>
    <marker
       inkscape:isstock="true"
       style="overflow:visible"
       id="marker1609"
       refX="0.0"
       refY="0.0"
       orient="auto"
       inkscape:stockid="TriangleOutM">
      <path
         transform="scale(0.4)"
         style="fill-rule:evenodd;stroke:#000000;stroke-width:1pt;stroke-opacity:1;fill:#000000;fill-opacity:1"
         d="M 5.77,0.0 L -2.88,5.0 L -2.88,-5.0 L 5.77,0.0 z "
         id="path1607" />
    </marker>
    <marker
       inkscape:isstock="true"
       style="overflow:visible"
       id="TriangleOutS"
       refX="0.0"
       refY="0.0"
       orient="auto"
       inkscape:stockid="TriangleOutS">
      <path
         transform="scale(0.2)"
         style="fill-rule:evenodd;stroke:#000000;stroke-width:1pt;stroke-opacity:1;fill:#000000;fill-opacity:1"
         d="M 5.77,0.0 L -2.88,5.0 L -2.88,-5.0 L 5.77,0.0 z "
         id="path1033" />
    </marker>
    <marker
       inkscape:isstock="true"
       style="overflow:visible"
       id="marker1471"
       refX="0.0"
       refY="0.0"
       orient="auto"
       inkscape:stockid="TriangleInS">
      <path
         transform="scale(-0.2)"
         style="fill-rule:evenodd;stroke:#000000;stroke-width:1pt;stroke-opacity:1;fill:#000000;fill-opacity:1"
         d="M 5.77,0.0 L -2.88,5.0 L -2.88,-5.0 L 5.77,0.0 z "
         id="path1469" />
    </marker>
    <marker
       inkscape:isstock="true"
       style="overflow:visible"
       id="TriangleInS"
       refX="0.0"
       refY="0.0"
       orient="auto"
       inkscape:stockid="TriangleInS">
      <path
         transform="scale(-0.2)"
         style="fill-rule:evenodd;stroke:#000000;stroke-width:1pt;stroke-opacity:1;fill:#000000;fill-opacity:1"
         d="M 5.77,0.0 L -2.88,5.0 L -2.88,-5.0 L 5.77,0.0 z "
         id="path1024" />
    </marker>
    <marker
       inkscape:isstock="true"
       style="overflow:visible"
       id="marker1375"
       refX="0.0"
       refY="0.0"
       orient="auto"
       inkscape:stockid="TriangleOutM">
      <path
         transform="scale(0.4)"
         style="fill-rule:evenodd;stroke:#000000;stroke-width:1pt;stroke-opacity:1;fill:#000000;fill-opacity:1"
         d="M 5.77,0.0 L -2.88,5.0 L -2.88,-5.0 L 5.77,0.0 z "
         id="path1373" />
    </marker>
    <marker
       inkscape:isstock="true"
       style="overflow:visible"
       id="TriangleOutM"
       refX="0.0"
       refY="0.0"
       orient="auto"
       inkscape:stockid="TriangleOutM">
      <path
         transform="scale(0.4)"
         style="fill-rule:evenodd;stroke:#000000;stroke-width:1pt;stroke-opacity:1;fill:#000000;fill-opacity:1"
         d="M 5.77,0.0 L -2.88,5.0 L -2.88,-5.0 L 5.77,0.0 z "
         id="path1030" />
    </marker>
    <marker
       inkscape:isstock="true"
       style="overflow:visible"
       id="TriangleOutL"
       refX="0.0"
       refY="0.0"
       orient="auto"
       inkscape:stockid="TriangleOutL">
      <path
         transform="scale(0.8)"
         style="fill-rule:evenodd;stroke:#000000;stroke-width:1pt;stroke-opacity:1;fill:#000000;fill-opacity:1"
         d="M 5.77,0.0 L -2.88,5.0 L -2.88,-5.0 L 5.77,0.0 z "
         id="path1027" />
    </marker>
    <marker
       inkscape:isstock="true"
       style="overflow:visible;"
       id="Arrow2Lend"
       refX="0.0"
       refY="0.0"
       orient="auto"
       inkscape:stockid="Arrow2Lend">
      <path
         transform="scale(1.1) rotate(180) translate(1,0)"
         d="M 8.7185878,4.0337352 L -2.2072895,0.016013256 L 8.7185884,-4.0017078 C 6.9730900,-1.6296469 6.9831476,1.6157441 8.7185878,4.0337352 z "
         style="fill-rule:evenodd;stroke-width:0.625;stroke-linejoin:round;stroke:#000000;stroke-opacity:1;fill:#000000;fill-opacity:1"
         id="path906" />
    </marker>
    <marker
       inkscape:isstock="true"
       style="overflow:visible;"
       id="Arrow1Lend"
       refX="0.0"
       refY="0.0"
       orient="auto"
       inkscape:stockid="Arrow1Lend">
      <path
         transform="scale(0.8) rotate(180) translate(12.5,0)"
         style="fill-rule:evenodd;stroke:#000000;stroke-width:1pt;stroke-opacity:1;fill:#000000;fill-opacity:1"
         d="M 0.0,0.0 L 5.0,-5.0 L -12.5,0.0 L 5.0,5.0 L 0.0,0.0 z "
         id="path888" />
    </marker>
    <marker
       inkscape:isstock="true"
       style="overflow:visible"
       id="Arrow1Lstart"
       refX="0.0"
       refY="0.0"
       orient="auto"
       inkscape:stockid="Arrow1Lstart">
      <path
         transform="scale(0.8) translate(12.5,0)"
         style="fill-rule:evenodd;stroke:#000000;stroke-width:1pt;stroke-opacity:1;fill:#000000;fill-opacity:1"
         d="M 0.0,0.0 L 5.0,-5.0 L -12.5,0.0 L 5.0,5.0 L 0.0,0.0 z "
         id="path885" />
    </marker>
  </defs>
  <sodipodi:namedview
     inkscape:current-layer="svg16"
     inkscape:window-maximized="1"
     inkscape:window-y="-8"
     inkscape:window-x="-8"
     inkscape:cy="380.91323"
     inkscape:cx="-35.472676"
     inkscape:zoom="1.26"
     inkscape:guide-bbox="true"
     showguides="true"
     showgrid="false"
     id="namedview18"
     inkscape:window-height="1734"
     inkscape:window-width="3200"
     inkscape:pageshadow="2"
     inkscape:pageopacity="0"
     guidetolerance="10"
     gridtolerance="10"
     objecttolerance="10"
     borderopacity="1"
     bordercolor="#666666"
     pagecolor="#ffffff">
    <sodipodi:guide
       id="guide873"
       orientation="0,-1"
       position="75.595238,64.285714" />
    <sodipodi:guide
       id="guide875"
       orientation="1,0"
       position="97.708499,7.592445" />
    <sodipodi:guide
       id="guide877"
       orientation="1,0"
       position="91.765873,100.89286" />
    <sodipodi:guide
       id="guide879"
       orientation="0,-1"
       position="2.2915011,7.592445" />
  </sodipodi:namedview>
  <path
     style="fill:#ffdd03;fill-opacity:1"
     id="path2"
     stroke-width="4.52371"
     stroke-linejoin="round"
     stroke="#bf7c00"
     fill-rule="evenodd"
     fill="#fff803"
     d="M 2.2915011,92.407555 H 91.708499 V 23.495279 H 60.601888 L 50,7.5924458 H 12.893389 L 2.2915011,23.495279 Z"
     sodipodi:nodetypes="cccccccc" />
  <path
     id="path4"
     stroke-width="0.958259"
     fill="#fdffcc"
     d="M 5.441488,31.905173 H 46.154849 L 57.464116,23.988686 48.416702,10.417565 h -33.9278 L 5.441488,23.988686 Z" />
  <g
     id="g871"
     transform="translate(-0.570895,0.510333)">
    <path
       id="path869"
       stroke-width="0.958259"
       fill="#fdffcc"
       d="M 6.012383,31.39484 H 46.725744 L 58.035011,23.478353 48.987597,9.9072322 h -33.9278 L 6.012383,23.478353 Z" />
    <path
       sodipodi:nodetypes="ccccc"
       id="path867"
       stroke-width="4.52371"
       stroke-linejoin="round"
       stroke="#bf7c00"
       fill-rule="evenodd"
       fill="#fff803"
       d="m 2.8623961,91.897222 89.4743719,0 5.942626,-56.693269 -84.702712,0 z" />
  </g>
  <path
     sodipodi:nodetypes="csc"
     id="path883"
     d="m 57.985774,9.0214363 c 0,0 3.905703,-6.3186429 14.184296,-5.3936047 9.246796,0.8321799 16.222787,13.1458014 16.222787,13.1458014"
     style="fill:none;stroke:#000000;stroke-width:5.2;stroke-linecap:round;stroke-linejoin:round;stroke-miterlimit:4;stroke-dasharray:none;stroke-opacity:1;marker-end:url(#marker2025)" />
</svg>

<?xml version="1.0" encoding="UTF-8"?>
<svg width="100" height="100" version="1.1" viewBox="0 0 100 100" xmlns="http://www.w3.org/2000/svg">
 <defs>
  <marker id="a" overflow="visible" orient="auto">
   <path transform="scale(.4)" d="m5.77 0-8.65 5v-10l8.65 5z" fill-rule="evenodd" stroke="#000" stroke-width="1pt"/>
  </marker>
 </defs>
 <path d="m2.2915 92.408h89.417v-68.912h-31.107l-10.602-15.903h-37.107l-10.602 15.903z" fill="#ffdd03" fill-rule="evenodd" stroke="#bf7c00" stroke-linejoin="round" stroke-width="4.5237"/>
 <path d="m5.4415 31.905h40.713l11.309-7.9165-9.0474-13.571h-33.928l-9.0474 13.571z" fill="#fdffcc" stroke-width=".95826"/>
 <g transform="translate(-.5709 .51033)">
  <path d="m6.0124 31.395h40.713l11.309-7.9165-9.0474-13.571h-33.928l-9.0474 13.571z" fill="#fdffcc" stroke-width=".95826"/>
  <path d="m2.8624 91.897h89.474l5.9426-56.693h-84.703z" fill="#fff803" fill-rule="evenodd" stroke="#bf7c00" stroke-linejoin="round" stroke-width="4.5237"/>
 </g>
 <path d="m57.986 9.0214s3.9057-6.3186 14.184-5.3936c9.2468 0.83218 16.223 13.146 16.223 13.146" fill="none" marker-end="url(#a)" stroke="#000" stroke-linecap="round" stroke-linejoin="round" stroke-width="5.2"/>
</svg>
